static/logos/hopin-wordmark-color.svg

<svg width="100" height="29" viewBox="0 0 100 29" fill="none" xmlns="http://www.w3.org/2000/svg">
<g clip-path="url(#clip0_1_2444)">
<path d="M81.3328 4.85726C82.6358 4.85726 83.6463 3.82537 83.6463 2.5289C83.6463 1.25888 82.6358 0.22699 81.3328 0.22699C80.0564 0.22699 78.9927 1.25888 78.9927 2.5289C78.9661 3.82537 80.0564 4.85726 81.3328 4.85726Z" fill="#2C3242"/>
<path d="M61.3906 6.47119H64.8742V8.58788C65.7517 7.31787 67.693 6.15369 69.9798 6.15369C74.3143 6.15369 77.6118 9.83146 77.6118 14.3559C77.6118 18.8539 74.3143 22.558 69.9798 22.558C67.693 22.558 65.7783 21.3939 64.8742 20.1239V28.8288H61.3906V6.47119ZM69.3416 9.30227C66.5229 9.30227 64.5817 11.4983 64.5817 14.3559C64.5817 17.187 66.5229 19.4095 69.3416 19.4095C72.1338 19.4095 74.075 17.2134 74.075 14.3559C74.075 11.5248 72.1338 9.30227 69.3416 9.30227Z" fill="#2C3242"/>
<path d="M85.6406 6.47119H89.1241V8.61434C90.0814 7.02682 91.8895 6.15369 93.9372 6.15369C97.6066 6.15369 100 8.74663 100 12.7419V22.2406H96.5165V13.324C96.5165 10.8369 95.2399 9.32876 93.2192 9.32876C90.9057 9.32876 89.1241 11.1279 89.1241 14.4881V22.2406H85.6406V6.47119Z" fill="#2C3242"/>
<path d="M34.8514 6.15373C32.8039 6.15373 30.9956 7.02687 30.0383 8.61439V0.22699H26.5547V22.2406H30.0383V14.4882C30.0383 11.1279 31.8199 9.32874 34.1334 9.32874C36.1544 9.32874 37.4308 10.8369 37.4308 13.3241V22.2406H40.9144V12.742C40.8878 8.74668 38.5211 6.15373 34.8514 6.15373Z" fill="#2C3242"/>
<path d="M83.0304 6.47125H79.5469V22.2406H83.0304V6.47125Z" fill="#2C3242"/>
<path d="M51.1483 22.558C46.4681 22.558 42.8516 18.9333 42.8516 14.3559C42.8516 9.77849 46.4681 6.15369 51.1483 6.15369C55.8285 6.15369 59.445 9.77849 59.445 14.3559C59.445 18.9333 55.8285 22.558 51.1483 22.558ZM51.1483 19.3301C53.9405 19.3301 55.9082 17.1605 55.9082 14.3559C55.9082 11.5513 53.9405 9.38164 51.1483 9.38164C48.3296 9.38164 46.3617 11.5513 46.3617 14.3559C46.3617 17.1605 48.3296 19.3301 51.1483 19.3301Z" fill="#2C3242"/>
<path d="M13.8649 4.44402C13.8384 5.4983 13.0953 7.00065 11.8481 7.00065C11.0785 7.00065 10.4416 6.36808 10.4416 5.60373V5.57738C10.4151 4.3386 9.85786 3.25796 8.9821 2.49361C8.31868 1.94011 7.49602 1.57112 6.59375 1.46569C7.36333 0.674987 8.45135 0.200562 9.64552 0.200562C11.1581 0.200562 12.538 1.07034 13.3342 2.33548C13.7057 2.96804 13.8915 3.73239 13.8649 4.44402Z" fill="#175FFF"/>
<path d="M8.92878 4.54942C9.59217 5.39285 9.99028 7.00062 9.03496 7.79133C8.42457 8.29211 7.54885 8.21304 7.04465 7.63319C6.222 6.71069 5.0809 6.23627 3.9398 6.20991C3.06408 6.18355 2.18835 6.44713 1.44531 6.9479C1.52493 5.86727 2.02913 4.78664 2.95793 4.02229C4.1521 3.04708 5.82393 2.75715 7.25694 3.337C7.92037 3.57422 8.50419 3.99593 8.92878 4.54942Z" fill="#175FFF"/>
<path d="M5.21766 7.76515C6.25262 7.976 7.63255 8.97757 7.42025 10.19C7.28756 10.9543 6.54453 11.4551 5.77494 11.3233H5.74841C4.5277 11.1388 3.33353 11.5078 2.45781 12.2195C1.79438 12.7466 1.26364 13.511 1.0248 14.3807C0.387908 13.4846 0.0959996 12.3513 0.28176 11.1652C0.573668 9.6628 1.66169 8.39771 3.14777 7.89693C3.8112 7.68607 4.55424 7.63336 5.21766 7.76515Z" fill="#175FFF"/>
<path d="M4.44388 12.6147C5.37268 12.114 7.07105 12.0085 7.68141 13.0628C8.07947 13.7217 7.84063 14.5915 7.17721 14.9869C6.11572 15.6194 5.45229 16.6473 5.21346 17.7807C5.05423 18.6241 5.13385 19.5202 5.5319 20.3373C4.47041 20.0737 3.48854 19.3885 2.90473 18.3606C2.13515 17.0163 2.16168 15.3559 2.9578 14.038C3.32932 13.4318 3.83353 12.931 4.44388 12.6147Z" fill="#175FFF"/>
<path d="M6.99525 16.8055C7.39331 15.8303 8.61401 14.6705 9.75512 15.0923C10.4982 15.3559 10.8697 16.1729 10.6043 16.8846C10.2062 18.0442 10.3655 19.2567 10.9228 20.2583C11.3474 21.0226 11.9842 21.6288 12.8069 22.0241C11.7985 22.4986 10.6308 22.6041 9.51629 22.1823C8.05673 21.6551 6.99525 20.3637 6.75642 18.835C6.6768 18.1497 6.75642 17.438 6.99525 16.8055Z" fill="#175FFF"/>
<path d="M11.663 18.3868C11.3181 17.3852 11.5038 15.7247 12.6714 15.303C13.4145 15.0395 14.2106 15.4085 14.476 16.1464C14.9271 17.2798 15.8293 18.1232 16.9173 18.5449C17.7135 18.8612 18.6423 18.9139 19.518 18.7031C19.0669 19.7046 18.2177 20.5217 17.1031 20.9434C15.6436 21.4705 13.9718 21.1542 12.8307 20.1263C12.3 19.6256 11.8754 19.0457 11.663 18.3868Z" fill="#175FFF"/>
<path d="M16.2791 16.6211C15.3768 16.0676 14.4215 14.6706 15.0584 13.6164C15.4565 12.9575 16.3057 12.7203 16.9956 13.0893C18.0836 13.6691 19.3043 13.7482 20.4189 13.3792C21.2415 13.0893 21.9846 12.5621 22.5153 11.8242C22.8072 12.8784 22.7011 14.0381 22.0907 15.0661C21.3212 16.4102 19.835 17.2273 18.2959 17.1746C17.5529 17.1746 16.8364 16.9901 16.2791 16.6211Z" fill="#175FFF"/>
<path d="M18.6708 12.3247C17.6093 12.4829 15.9906 12.0084 15.7783 10.796C15.619 10.058 16.1498 9.31998 16.9194 9.18818H16.9459C18.1666 8.95099 19.1485 8.213 19.7323 7.2378C20.1834 6.4998 20.3957 5.63002 20.3162 4.73389C21.2184 5.34009 21.9083 6.3153 22.0941 7.475C22.3595 8.97736 21.7491 10.5588 20.555 11.5076C19.9977 11.9293 19.3343 12.2457 18.6708 12.3247Z" fill="#175FFF"/>
<path d="M17.7121 7.52789C16.9956 8.3186 15.4565 9.00388 14.5011 8.21317C13.8908 7.71239 13.8111 6.84261 14.3154 6.2364C15.0849 5.28756 15.3768 4.07513 15.1911 2.94179C15.0584 2.09837 14.6603 1.2813 14.0235 0.622378C15.1115 0.51695 16.2526 0.833233 17.1814 1.59758C18.3756 2.57279 18.9329 4.18057 18.6144 5.68291C18.4817 6.36819 18.1632 7.02712 17.7121 7.52789Z" fill="#175FFF"/>
</g>
<defs>
<clipPath id="clip0_1_2444">
<rect width="100" height="28.8288" fill="white"/>
</clipPath>
</defs>
</svg>

<svg xmlns="http://www.w3.org/2000/svg" width="220.69" height="64" fill="none" viewBox="0 0 100 29"><g clip-path="url(#a)"><path fill="#2C3242" d="M81.333 4.857c1.303 0 2.313-1.032 2.313-2.328 0-1.27-1.01-2.302-2.313-2.302-1.277 0-2.34 1.032-2.34 2.302-.027 1.296 1.063 2.328 2.34 2.328ZM61.39 6.471h3.484v2.117c.878-1.27 2.819-2.434 5.106-2.434 4.334 0 7.632 3.677 7.632 8.202 0 4.498-3.298 8.202-7.632 8.202-2.287 0-4.202-1.164-5.106-2.434v8.705h-3.483V6.47Zm7.952 2.831c-2.82 0-4.76 2.196-4.76 5.054 0 2.831 1.94 5.054 4.76 5.054 2.792 0 4.733-2.197 4.733-5.054 0-2.831-1.941-5.054-4.733-5.054ZM85.64 6.471h3.484v2.143c.957-1.587 2.766-2.46 4.813-2.46 3.67 0 6.063 2.593 6.063 6.588v9.499h-3.484v-8.917c0-2.487-1.276-3.995-3.297-3.995-2.313 0-4.095 1.799-4.095 5.16v7.752h-3.483V6.47ZM34.851 6.154c-2.047 0-3.855.873-4.813 2.46V.227h-3.483v22.014h3.483v-7.753c0-3.36 1.782-5.16 4.095-5.16 2.021 0 3.298 1.509 3.298 3.996v8.917h3.483v-9.499c-.026-3.995-2.393-6.588-6.063-6.588ZM83.03 6.471h-3.483v15.77h3.483V6.47ZM51.148 22.558c-4.68 0-8.296-3.625-8.296-8.202 0-4.578 3.616-8.202 8.296-8.202s8.297 3.624 8.297 8.202c0 4.577-3.617 8.202-8.297 8.202Zm0-3.228c2.792 0 4.76-2.17 4.76-4.974 0-2.805-1.968-4.974-4.76-4.974-2.818 0-4.786 2.17-4.786 4.974 0 2.804 1.968 4.974 4.786 4.974Z"/><path fill="#175FFF" d="M13.865 4.444c-.027 1.054-.77 2.557-2.017 2.557-.77 0-1.406-.633-1.406-1.397v-.027c-.027-1.238-.584-2.319-1.46-3.083a4.548 4.548 0 0 0-2.388-1.028A4.24 4.24 0 0 1 9.646.2c1.512 0 2.892.87 3.688 2.134.372.633.558 1.397.53 2.109ZM8.929 4.55c.663.843 1.061 2.45.106 3.241-.61.501-1.486.422-1.99-.158A4.281 4.281 0 0 0 3.94 6.21a4.255 4.255 0 0 0-2.495.738 4.186 4.186 0 0 1 1.513-2.926c1.194-.975 2.866-1.265 4.299-.685a3.662 3.662 0 0 1 1.672 1.212ZM5.218 7.765c1.035.211 2.415 1.213 2.202 2.425-.132.764-.875 1.265-1.645 1.133h-.027a4.236 4.236 0 0 0-3.29.896 4.227 4.227 0 0 0-1.433 2.162 4.349 4.349 0 0 1-.743-3.216 4.334 4.334 0 0 1 2.866-3.268 4.257 4.257 0 0 1 2.07-.132ZM4.444 12.615c.929-.501 2.627-.607 3.237.448.398.659.16 1.528-.504 1.924-1.061.632-1.725 1.66-1.964 2.794-.159.843-.08 1.74.319 2.556a4.18 4.18 0 0 1-2.627-1.976 4.272 4.272 0 0 1 .053-4.323c.371-.606.876-1.107 1.486-1.423ZM6.995 16.805c.398-.975 1.619-2.134 2.76-1.713a1.395 1.395 0 0 1 .85 1.793 4.143 4.143 0 0 0 .318 3.373 4.206 4.206 0 0 0 1.884 1.766c-1.008.475-2.176.58-3.29.158a4.27 4.27 0 0 1-2.76-3.347c-.08-.685 0-1.397.238-2.03ZM11.663 18.387c-.345-1.002-.16-2.662 1.008-3.084a1.4 1.4 0 0 1 1.805.843 4.27 4.27 0 0 0 2.441 2.399c.796.316 1.725.369 2.601.158a4.29 4.29 0 0 1-2.415 2.24c-1.46.527-3.131.211-4.272-.817-.531-.5-.956-1.08-1.168-1.74ZM16.28 16.621c-.903-.553-1.859-1.95-1.222-3.005a1.458 1.458 0 0 1 1.938-.527 4.329 4.329 0 0 0 3.423.29 4.355 4.355 0 0 0 2.096-1.555 4.135 4.135 0 0 1-.424 3.242 4.238 4.238 0 0 1-3.795 2.109c-.743 0-1.46-.185-2.017-.554ZM18.67 12.325c-1.06.158-2.68-.317-2.892-1.529-.159-.738.372-1.476 1.141-1.608h.027a4.156 4.156 0 0 0 2.786-1.95 4.09 4.09 0 0 0 .584-2.504c.902.606 1.592 1.581 1.778 2.741.265 1.502-.345 3.084-1.539 4.033-.557.421-1.22.738-1.884.817ZM17.712 7.528c-.716.79-2.255 1.476-3.21.685-.611-.5-.69-1.37-.187-1.977a4.173 4.173 0 0 0 .876-3.294 4.314 4.314 0 0 0-1.168-2.32 4.31 4.31 0 0 1 3.158.976 4.2 4.2 0 0 1 1.433 4.085 3.899 3.899 0 0 1-.902 1.845Z"/></g><defs><clipPath id="a"><path fill="#fff" d="M0 0h100v28.829H0z"/></clipPath></defs></svg>
